;FLAVOR:RepRap
;TIME:978
;Filament used: 0.950734m
;Layer height: 0.2
;Generated with Cura_SteamEngine 2.4.0
M190 S55
M104 S190
M109 S190
G21 ;metric values
G90 ;absolute positioning
M82 ;set extruder to absolute mode
M107 ;start with the fan off
G28 X0 Y0 ;move X/Y to min endstops
G28 Z0 ;move Z to min endstops
G1 Z15.0 F9000 ;move the platform down 15mm
G92 E0 ;zero the extruded length
G1 F200 E3 ;extrude 3mm of feed stock
G92 E0 ;zero the extruded length again
G1 F9000
;Put printing message on LCD screen
M117 Printing...
;LAYER_COUNT:129
;LAYER:0
M107
G1 F1500 E-6.5
G0 F3600 X85.852 Y25.655 Z0.3
;TYPE:SKIRT
G1 F1500 E0
G1 F1800 X86.085 Y25.056 E0.03207
G1 X86.992 Y23.185 E0.1358
G1 X87.291 Y22.67 E0.16551
G1 X88.021 Y21.604 E0.22997
G1 X88.308 Y21.233 E0.25337
G1 X89.162 Y20.255 E0.31815
G1 X89.496 Y19.916 E0.34189
G1 X90.456 Y19.05 E0.40639
G1 X90.826 Y18.754 E0.43003
G1 X91.908 Y17.989 E0.49614
G1 X92.312 Y17.738 E0.51987
G1 X93.442 Y17.126 E0.58398
G1 X93.94 Y16.899 E0.61129
G1 X95.646 Y16.258 E0.70221
G1 X96.208 Y16.092 E0.73145
G1 X97.499 Y15.813 E0.79734
G1 X98.141 Y15.728 E0.82965
G1 X100.225 Y15.622 E0.93376
G1 X100.816 Y15.636 E0.96325
G1 X102.098 Y15.761 E1.02751
G1 X102.64 Y15.852 E1.05493
G1 X104.413 Y16.276 E1.14588
G1 X105.119 Y16.516 E1.18308
G1 X107.017 Y17.367 E1.28686
G1 X107.542 Y17.651 E1.31663
G1 X108.623 Y18.345 E1.38072
G1 X109.008 Y18.626 E1.4045
G1 X110.014 Y19.456 E1.46957
G1 X110.35 Y19.767 E1.49241
G1 X111.223 Y20.674 E1.55522
G1 X111.578 Y21.099 E1.58284
G1 X112.671 Y22.605 E1.67568
G1 X113.052 Y23.247 E1.71293
G1 X113.923 Y25.093 E1.81476
G1 X114.158 Y25.724 E1.84835
G1 X114.66 Y27.521 E1.94144
G1 X114.788 Y28.203 E1.97606
G1 X114.967 Y30.012 E2.06675
G1 X114.979 Y30.641 E2.09814
G1 X114.89 Y32.156 E2.17385
G1 X114.829 Y32.653 E2.19883
G1 X114.579 Y33.996 E2.26699
G1 X114.462 Y34.465 E2.2911
G1 X114.071 Y35.707 E2.35606
G1 X113.902 Y36.151 E2.37977
G1 X113.374 Y37.321 E2.44381
G1 X113.158 Y37.734 E2.46706
G1 X112.5 Y38.831 E2.53088
G1 X112.233 Y39.222 E2.5545
G1 X111.423 Y40.268 E2.6205
G1 X111.11 Y40.626 E2.64423
G1 X110.207 Y41.543 E2.70843
G1 X109.797 Y41.906 E2.73575
G1 X108.35 Y43.02 E2.82686
G1 X107.857 Y43.344 E2.85629
G1 X106.712 Y43.982 E2.92169
G1 X106.287 Y44.187 E2.94523
G1 X105.091 Y44.679 E3.00975
G1 X104.639 Y44.834 E3.03359
G1 X103.367 Y45.187 E3.09945
G1 X102.904 Y45.287 E3.12308
G1 X101.646 Y45.48 E3.18657
G1 X101.179 Y45.524 E3.20998
G1 X99.867 Y45.57 E3.27547
G1 X99.388 Y45.558 E3.29938
G1 X98.095 Y45.448 E3.36412
G1 X97.63 Y45.38 E3.38756
G1 X96.348 Y45.117 E3.45285
G1 X95.893 Y44.996 E3.47634
G1 X94.66 Y44.587 E3.54115
G1 X94.211 Y44.407 E3.56529
G1 X93.017 Y43.843 E3.63117
G1 X92.603 Y43.617 E3.6547
G1 X91.521 Y42.94 E3.71838
G1 X91.137 Y42.667 E3.74188
G1 X90.107 Y41.839 E3.80781
G1 X89.752 Y41.517 E3.83173
G1 X88.85 Y40.594 E3.89611
G1 X88.543 Y40.24 E3.91949
G1 X87.743 Y39.202 E3.98487
G1 X87.478 Y38.812 E4.0084
G1 X86.821 Y37.713 E4.07228
G1 X86.602 Y37.293 E4.09591
G1 X86.062 Y36.085 E4.16192
G1 X85.892 Y35.634 E4.18597
G1 X85.512 Y34.404 E4.25019
G1 X85.4 Y33.949 E4.27357
G1 X85.161 Y32.654 E4.33927
G1 X85.103 Y32.183 E4.36295
G1 X85.021 Y30.899 E4.42714
G1 X85.019 Y30.427 E4.45068
G1 X85.09 Y29.119 E4.51604
G1 X85.143 Y28.649 E4.53963
G1 X85.364 Y27.381 E4.60385
G1 X85.473 Y26.922 E4.62738
G1 X85.852 Y25.655 E4.69336
G0 F3600 X86.235 Y25.769
G1 F1800 X86.445 Y25.231 E4.72218
G1 X87.352 Y23.36 E4.82591
G1 X87.621 Y22.896 E4.85267
G1 X88.351 Y21.83 E4.91713
G1 X88.609 Y21.496 E4.93818
G1 X89.463 Y20.518 E5.00296
G1 X89.764 Y20.213 E5.02434
G1 X90.724 Y19.347 E5.08884
G1 X91.057 Y19.08 E5.11013
G1 X92.139 Y18.315 E5.17625
G1 X92.503 Y18.089 E5.19762
G1 X93.633 Y17.477 E5.26173
G1 X94.081 Y17.273 E5.28629
G1 X95.787 Y16.632 E5.37722
G1 X96.293 Y16.483 E5.40353
G1 X97.584 Y16.204 E5.46943
G1 X98.161 Y16.128 E5.49846
G1 X100.245 Y16.022 E5.60257
G1 X100.777 Y16.034 E5.62912
G1 X102.059 Y16.159 E5.69338
G1 X102.547 Y16.241 E5.71807
G1 X104.32 Y16.665 E5.80902
G1 X104.956 Y16.881 E5.84253
G1 X106.854 Y17.732 E5.9463
G1 X107.326 Y17.988 E5.97309
G1 X108.407 Y18.682 E6.03718
G1 X108.753 Y18.934 E6.05853
G1 X109.759 Y19.764 E6.1236
G1 X110.062 Y20.044 E6.14418
G1 X110.935 Y20.951 E6.20699
G1 X111.255 Y21.333 E6.23185
G1 X112.348 Y22.839 E6.32469
G1 X112.69 Y23.418 E6.35824
G1 X113.561 Y25.264 E6.46007
G1 X113.772 Y25.831 E6.49025
G1 X114.274 Y27.628 E6.58334
G1 X114.39 Y28.243 E6.61456
G1 X114.569 Y30.052 E6.70525
G1 X114.58 Y30.617 E6.73345
G1 X114.491 Y32.132 E6.80916
G1 X114.436 Y32.58 E6.83168
G1 X114.186 Y33.923 E6.89983
G1 X114.081 Y34.345 E6.92153
G1 X113.69 Y35.587 E6.98649
G1 X113.537 Y35.987 E7.00786
G1 X113.009 Y37.157 E7.0719
G1 X112.815 Y37.528 E7.09278
G1 X112.157 Y38.625 E7.1566
G1 X111.916 Y38.977 E7.17789
G1 X111.106 Y40.023 E7.24389
G1 X110.825 Y40.345 E7.26521
G1 X109.922 Y41.262 E7.32942
G1 X109.553 Y41.589 E7.35402
G1 X108.106 Y42.703 E7.44512
G1 X107.662 Y42.995 E7.47164
G1 X106.517 Y43.633 E7.53703
G1 X106.135 Y43.817 E7.55818
G1 X104.939 Y44.309 E7.6227
G1 X104.532 Y44.449 E7.64418
G1 X103.26 Y44.802 E7.71003
G1 X102.843 Y44.891 E7.73131
G1 X101.585 Y45.084 E7.7948
G1 X101.165 Y45.124 E7.81585
G1 X99.853 Y45.17 E7.88135
G1 X99.422 Y45.159 E7.90286
G1 X98.129 Y45.049 E7.9676
G1 X97.711 Y44.989 E7.98867
G1 X96.429 Y44.726 E8.05396
G1 X96.019 Y44.616 E8.07514
G1 X94.786 Y44.207 E8.13995
G1 X94.381 Y44.045 E8.16171
G1 X93.187 Y43.481 E8.22759
G1 X92.815 Y43.278 E8.24873
G1 X91.733 Y42.601 E8.31241
G1 X91.387 Y42.355 E8.33359
G1 X90.357 Y41.527 E8.39952
G1 X90.038 Y41.237 E8.42103
G1 X89.136 Y40.314 E8.48542
G1 X88.86 Y39.996 E8.50642
G1 X88.06 Y38.958 E8.5718
G1 X87.821 Y38.607 E8.59299
G1 X87.164 Y37.508 E8.65687
G1 X86.967 Y37.13 E8.67814
G1 X86.427 Y35.922 E8.74415
G1 X86.274 Y35.516 E8.7658
G1 X85.894 Y34.286 E8.83002
G1 X85.794 Y33.876 E8.85108
G1 X85.555 Y32.581 E8.91678
G1 X85.502 Y32.157 E8.9381
G1 X85.42 Y30.873 E9.00229
G1 X85.418 Y30.449 E9.02344
G1 X85.489 Y29.141 E9.08879
G1 X85.537 Y28.718 E9.11003
G1 X85.758 Y27.45 E9.17424
G1 X85.856 Y27.036 E9.19547
G1 X86.235 Y25.769 E9.26145
G0 F3600 X86.618 Y25.884
G1 F1800 X86.805 Y25.405 E9.2871
G1 X87.712 Y23.534 E9.39084
G1 X87.951 Y23.122 E9.4146
G1 X88.681 Y22.056 E9.47906
G1 X88.911 Y21.759 E9.4978
G1 X89.765 Y20.781 E9.56257
G1 X90.032 Y20.51 E9.58155
G1 X90.992 Y19.644 E9.64606
G1 X91.288 Y19.407 E9.66498
G1 X92.37 Y18.642 E9.73109
G1 X92.693 Y18.441 E9.75007
G1 X93.823 Y17.829 E9.81418
G1 X94.221 Y17.647 E9.83601
G1 X95.927 Y17.006 E9.92694
G1 X96.377 Y16.874 E9.95033
G1 X97.668 Y16.595 E10.01623
G1 X98.181 Y16.527 E10.04204
G1 X100.265 Y16.421 E10.14615
G1 X100.739 Y16.432 E10.1698
G1 X102.021 Y16.557 E10.23407
G1 X102.454 Y16.63 E10.25597
G1 X104.227 Y17.054 E10.34692
G1 X104.792 Y17.246 E10.37669
G1 X106.69 Y18.097 E10.48047
G1 X107.11 Y18.324 E10.50429
G1 X108.191 Y19.018 E10.56838
G1 X108.498 Y19.243 E10.58737
G1 X109.504 Y20.073 E10.65243
G1 X109.774 Y20.322 E10.67076
G1 X110.647 Y21.229 E10.73356
G1 X110.931 Y21.568 E10.75563
G1 X112.024 Y23.074 E10.84846
G1 X112.328 Y23.589 E10.8783
G1 X113.199 Y25.435 E10.98013
G1 X113.387 Y25.939 E11.00697
G1 X113.889 Y27.736 E11.10006
G1 X113.991 Y28.282 E11.12777
G1 X114.17 Y30.091 E11.21846
G1 X114.18 Y30.594 E11.24356
G1 X114.091 Y32.109 E11.31927
G1 X114.043 Y32.507 E11.33927
G1 X113.793 Y33.85 E11.40743
G1 X113.699 Y34.225 E11.42671
G1 X113.308 Y35.467 E11.49168
G1 X113.173 Y35.822 E11.51062
G1 X112.645 Y36.992 E11.57466
G1 X112.472 Y37.322 E11.59325
G1 X111.814 Y38.419 E11.65707
G1 X111.6 Y38.732 E11.67599
G1 X110.79 Y39.778 E11.74199
G1 X110.54 Y40.064 E11.76094
G1 X109.637 Y40.981 E11.82515
G1 X109.309 Y41.272 E11.84703
G1 X107.862 Y42.386 E11.93813
G1 X107.468 Y42.645 E11.96166
G1 X106.323 Y43.283 E12.02705
G1 X105.982 Y43.447 E12.04593
G1 X104.786 Y43.939 E12.11045
G1 X104.425 Y44.063 E12.12949
G1 X103.153 Y44.416 E12.19535
G1 X102.782 Y44.496 E12.21429
G1 X101.524 Y44.689 E12.27778
G1 X101.151 Y44.724 E12.29647
G1 X99.839 Y44.77 E12.36197
G1 X99.456 Y44.76 E12.38108
G1 X98.163 Y44.65 E12.44582
G1 X97.791 Y44.597 E12.46457
G1 X96.509 Y44.334 E12.52986
G1 X96.145 Y44.236 E12.54867
G1 X94.912 Y43.827 E12.61348
G1 X94.552 Y43.683 E12.63282
G1 X93.358 Y43.119 E12.6987
G1 X93.028 Y42.939 E12.71746
G1 X91.946 Y42.262 E12.78113
G1 X91.638 Y42.043 E12.79999
G1 X90.608 Y41.215 E12.86592
G1 X90.324 Y40.958 E12.88503
G1 X89.422 Y40.035 E12.94942
G1 X89.176 Y39.751 E12.96816
G1 X88.376 Y38.713 E13.03354
G1 X88.164 Y38.402 E13.05232
G1 X87.507 Y37.303 E13.1162
G1 X87.333 Y36.967 E13.13508
G1 X86.793 Y35.759 E13.20109
G1 X86.657 Y35.398 E13.22034
G1 X86.277 Y34.168 E13.28457
G1 X86.187 Y33.804 E13.30327
G1 X85.948 Y32.509 E13.36897
G1 X85.902 Y32.132 E13.38792
G1 X85.82 Y30.848 E13.45211
G1 X85.818 Y30.471 E13.47092
G1 X85.889 Y29.163 E13.53627
G1 X85.932 Y28.787 E13.55515
G1 X86.153 Y27.519 E13.61937
G1 X86.239 Y27.151 E13.63822
G1 X86.618 Y25.884 E13.7042
G1 F1500 E7.2042
G0 F3600 X89.035 Y26.621
G0 X90.264 Y26.996
G0 X90.346 Y27
G0 X90.253 Y26.966
;TYPE:WALL-INNER
G1 F1500 E13.7042
G1 F1800 X90.749 Y25.838 E13.76567
G1 X91.375 Y24.779 E13.82705
G1 X92.125 Y23.796 E13.88874
G1 X92.98 Y22.916 E13.94995
G1 X93.938 Y22.139 E14.01149
G1 X94.979 Y21.481 E14.07293
G1 X96.097 Y20.949 E14.1347
G1 X97.258 Y20.556 E14.19585
G1 X98.467 Y20.302 E14.25748
G1 X99.686 Y20.193 E14.31854
G1 X100.921 Y20.23 E14.38018
G1 X102.141 Y20.412 E14.44172
G1 X103.335 Y20.738 E14.50347
G1 X104.472 Y21.199 E14.56468
G1 X105.546 Y21.791 E14.62587
G1 X106.554 Y22.514 E14.68775
G1 X107.464 Y23.346 E14.74927
G1 X108.263 Y24.274 E14.81036
G1 X108.953 Y25.298 E14.87197
G1 X109.518 Y26.4 E14.93375
G1 X109.945 Y27.549 E14.99491
G1 X110.234 Y28.744 E15.05624
G1 X110.38 Y29.98 E15.11834
G1 X110.399 Y30.611 E15.14983
G1 X110.381 Y31.19 E15.17873
G1 X110.234 Y32.43 E15.24103
G1 X109.945 Y33.626 E15.30241
G1 X109.518 Y34.775 E15.36357
G1 X108.953 Y35.876 E15.42531
G1 X108.263 Y36.9 E15.48691
G1 X107.464 Y37.828 E15.54801
G1 X106.551 Y38.662 E15.6097
G1 X105.544 Y39.386 E15.67158
G1 X104.478 Y39.972 E15.73226
G1 X103.329 Y40.439 E15.79414
G1 X102.145 Y40.762 E15.85537
G1 X100.92 Y40.945 E15.91716
G1 X99.685 Y40.981 E15.97881
G1 X98.47 Y40.873 E16.03966
G1 X97.256 Y40.617 E16.10156
G1 X96.097 Y40.226 E16.16258
G1 X94.975 Y39.691 E16.2246
G1 X93.942 Y39.039 E16.28554
G1 X92.98 Y38.258 E16.34736
G1 X92.125 Y37.378 E16.40858
G1 X91.375 Y36.395 E16.47026
G1 X90.749 Y35.336 E16.53164
G1 X90.253 Y34.208 E16.59311
G1 X89.894 Y33.033 E16.65441
G1 X89.674 Y31.814 E16.71621
G1 X89.601 Y30.587 E16.77753
G1 X89.674 Y29.36 E16.83885
G1 X89.894 Y28.141 E16.90065
G1 X90.253 Y26.966 E16.96195
G0 F3600 X89.875 Y26.831
;TYPE:WALL-OUTER
G1 F1800 X90.393 Y25.654 E17.0261
G1 X91.044 Y24.553 E17.08992
G1 X91.822 Y23.534 E17.15388
G1 X92.709 Y22.62 E17.21742
G1 X93.703 Y21.814 E17.28127
G1 X94.784 Y21.131 E17.34506
G1 X95.948 Y20.577 E17.40937
G1 X97.148 Y20.171 E17.47258
G1 X98.409 Y19.906 E17.53686
G1 X99.679 Y19.792 E17.60048
G1 X100.958 Y19.831 E17.66432
G1 X102.223 Y20.019 E17.72812
G1 X103.462 Y20.358 E17.79221
G1 X104.64 Y20.835 E17.85561
G1 X105.761 Y21.453 E17.91948
G1 X106.806 Y22.203 E17.98365
G1 X107.751 Y23.067 E18.04753
G1 X108.582 Y24.031 E18.11103
G1 X109.3 Y25.097 E18.17515
G1 X109.884 Y26.236 E18.23901
G1 X110.329 Y27.434 E18.30277
G1 X110.628 Y28.67 E18.36621
G1 X110.78 Y29.955 E18.43077
G1 X110.799 Y30.614 E18.46366
G1 X110.781 Y31.215 E18.49365
G1 X110.628 Y32.504 E18.55841
G1 X110.329 Y33.741 E18.62191
G1 X109.884 Y34.939 E18.68566
G1 X109.3 Y36.077 E18.74948
G1 X108.582 Y37.143 E18.8136
G1 X107.751 Y38.107 E18.8771
G1 X106.8 Y38.976 E18.94137
G1 X105.764 Y39.721 E19.00503
G1 X104.644 Y40.337 E19.0688
G1 X103.462 Y40.817 E19.13245
G1 X102.225 Y41.155 E19.19642
G1 X100.957 Y41.344 E19.26038
G1 X99.679 Y41.382 E19.32417
G1 X98.409 Y41.269 E19.38778
G1 X97.148 Y41.003 E19.45208
G1 X95.948 Y40.598 E19.51527
G1 X94.784 Y40.043 E19.5796
G1 X93.703 Y39.361 E19.64337
G1 X92.709 Y38.554 E19.70725
G1 X91.822 Y37.64 E19.77079
G1 X91.044 Y36.621 E19.83475
G1 X90.393 Y35.52 E19.89856
G1 X89.875 Y34.343 E19.96272
G1 X89.504 Y33.128 E20.0261
G1 X89.277 Y31.867 E20.09002
G1 X89.201 Y30.587 E20.15399
G1 X89.277 Y29.307 E20.21796
G1 X89.504 Y28.046 E20.28189
G1 X89.875 Y26.831 E20.34527
G0 F3600 X89.955 Y26.648
G0 X90.412 Y27.055
;TYPE:SKIN
G1 F1800 X103.522 Y40.165 E21.27025
G0 X103.592 Y40.235
G0 F3600 X103.924 Y40.001
G1 F1800 X90.582 Y26.66 E22.21156
G0 X90.512 Y26.59
G0 F3600 X90.755 Y26.267
G1 F1800 X104.326 Y39.838 E23.16907
G0 X104.396 Y39.908
G0 F3600 X104.698 Y39.644
G1 F1800 X90.932 Y25.878 E24.14034
G0 X90.862 Y25.808
G0 F3600 X91.142 Y25.523
G1 F1800 X105.064 Y39.444 E25.12257
G0 X105.134 Y39.514
G0 F3600 X105.428 Y39.243
G1 F1800 X91.353 Y25.168 E26.11564
G0 X91.283 Y25.098
G0 F3600 X91.569 Y24.818
G1 F1800 X105.759 Y39.008 E27.11682
G0 X105.829 Y39.078
G0 F3600 X106.088 Y38.772
G1 F1800 X91.814 Y24.498 E28.12393
G0 X91.744 Y24.428
G0 F3600 X92.059 Y24.177
G1 F1800 X106.418 Y38.535 E29.137
G0 X106.488 Y38.605
G0 F3600 X106.714 Y38.266
G1 F1800 X92.309 Y23.862 E30.15331
G0 X92.239 Y23.792
G0 F3600 X92.588 Y23.574
G1 F1800 X107.01 Y37.996 E31.17086
G0 X107.08 Y38.066
G0 F3600 X107.305 Y37.726
G1 F1800 X92.867 Y23.287 E32.18958
G0 X92.797 Y23.217
G0 F3600 X93.152 Y23.007
G1 F1800 X107.571 Y37.426 E33.20692
G0 X107.641 Y37.496
G0 F3600 X107.833 Y37.122
G1 F1800 X93.464 Y22.753 E34.22073
G0 X93.394 Y22.683
G0 F3600 X93.777 Y22.5
G1 F1800 X108.094 Y36.818 E35.2309
G0 X108.164 Y36.888
G0 F3600 X108.325 Y36.483
G1 F1800 X94.095 Y22.253 E36.23491
G0 X94.025 Y22.183
G0 F3600 X94.441 Y22.033
G1 F1800 X108.553 Y36.145 E37.23058
G0 X108.623 Y36.215
G0 F3600 X108.781 Y35.807
G1 F1800 X94.787 Y21.814 E38.2179
G0 X94.717 Y21.744
G0 F3600 X95.141 Y21.602
G1 F1800 X108.975 Y35.436 E39.19397
G0 X109.045 Y35.506
G0 F3600 X109.167 Y35.062
G1 F1800 X95.525 Y21.42 E40.15648
G0 X95.455 Y21.35
G0 F3600 X95.908 Y21.237
G1 F1800 X109.358 Y34.687 E41.10545
G0 X109.428 Y34.757
G0 F3600 X109.511 Y34.275
G1 F1800 X96.304 Y21.068 E42.03728
G0 X96.234 Y20.998
G0 F3600 X96.727 Y20.925
G1 F1800 X109.664 Y33.862 E42.95005
G0 X109.734 Y33.932
G0 F3600 X109.805 Y33.437
G1 F1800 X97.15 Y20.783 E43.8429
G0 X97.08 Y20.713
G0 F3600 X97.601 Y20.668
G1 F1800 X109.915 Y32.982 E44.71171
G0 X109.985 Y33.052
G0 F3600 X110.026 Y32.527
G1 F1800 X98.069 Y20.57 E45.55535
G0 X97.999 Y20.5
G0 F3600 X98.54 Y20.476
G1 F1800 X110.099 Y32.034 E46.37086
G0 X110.169 Y32.104
G0 F3600 X110.158 Y31.528
G1 F1800 X99.06 Y20.429 E47.15392
G0 X98.99 Y20.359
G0 F3600 X99.579 Y20.383
G1 F1800 X110.206 Y31.01 E47.90371
G0 X110.276 Y31.08
G0 F3600 X110.213 Y30.452
G1 F1800 X100.148 Y20.387 E48.61385
G0 X100.078 Y20.317
G0 F3600 X100.732 Y20.404
G1 F1800 X110.183 Y29.856 E49.28071
G0 X110.253 Y29.926
G0 F3600 X110.107 Y29.214
G1 F1800 X101.372 Y20.479 E49.89701
G0 X101.302 Y20.409
G0 F3600 X102.036 Y20.578
G1 F1800 X109.999 Y28.54 E50.45881
G0 X110.069 Y28.61
G0 F3600 X109.818 Y27.794
G1 F1800 X102.804 Y20.779 E50.95372
G0 X102.734 Y20.709
G0 F3600 X103.649 Y21.059
G1 F1800 X109.524 Y26.934 E51.36823
G0 X109.594 Y27.004
G0 F3600 X109.062 Y25.906
G1 F1800 X104.67 Y21.515 E51.67807
G0 X104.6 Y21.445
G0 F3600 X106.213 Y22.491
G1 F1800 X108.147 Y24.425 E51.81453
G0 X108.217 Y24.495
G0 F3600 X103.103 Y40.312
G1 F1800 X90.279 Y27.488 E52.71933
G0 X90.209 Y27.418
G0 F3600 X90.147 Y27.922
G1 F1800 X102.659 Y40.434 E53.60212
G0 X102.729 Y40.504
G0 F3600 X102.215 Y40.556
